X:1
T:Title
%%score 1 2
L:1/8
Q:1/4=135
M:6/4
K:Eb
V:1 treble nm="Grand Piano, Soprano"
V:2 bass nm="Choir Pad, Beauraing, 77.77 D"
V:1
 E4 [DF]2 [EG]4 E2 | [Ee]4 [Ec]2 .[EB]6 | [EG]4 [DA]2 [EB]4 [EG]2 | [DF]4 [B,F]2 [DF]6 | %4
w: By~R.~A.~Jennings,~1908 * * *||||
 E4 [DF]2 [EG]4 E2 | [Ee]4 [Ec]2 .[EB]6 | [EG]4 [DA]2 [EB]4 [EG]2 | [EG]4 [DF]2 E6 | %8
w: ||||
 [EB]4 [Ec]2 [EB]4 [EG]2 | [EA]4 [EB]2 .[Ec]6 | [EB]4 [Ec]2 [EB]4 [EG]2 | [DA]4 [EG]2 [DF]6 | %12
w: ||||
 E4 [DF]2 [EG]4 E2 | [Ee]4 [Ec]2 .[EB]6 | [EG]4 [DA]2 [EB]4 [EG]2 | [EG]4 [DF]2 E6- | E6 z6 |] %17
w: |||||
V:2
 [E,G,]4 [E,A,]2 [E,B,]4 [E,G,]2 | [E,C]4 [E,A,]2 .[E,G,]6 | [E,B,]4 [F,B,]2 [G,B,]4 [E,B,]2 | %3
 [F,B,]4 [F,=A,]2 [B,,B,]6 | [E,G,]4 [E,A,]2 [E,B,]4 [E,G,]2 | [E,C]4 [E,A,]2 .[E,G,]6 | %6
 [E,B,]4 [F,B,]2 [G,B,]4 [E,B,]2 | [B,,B,]4 [B,,A,]2 [E,G,]6 | [E,G,]4 [E,A,]2 [E,G,]4 [E,B,]2 | %9
 [C,A,]4 [B,,G,]2 .[A,,A,]6 | [E,G,]4 [E,A,]2 [E,G,]4 [E,B,]2 | [F,B,]4 [E,B,]2 [B,,B,]6 | %12
 [E,G,]4 [E,A,]2 [E,B,]4 [E,G,]2 | [E,C]4 [E,A,]2 .[E,G,]6 | [E,B,]4 [F,B,]2 [G,B,]4 [E,B,]2 | %15
 [B,,B,]4 [B,,A,]2 [E,G,]6- | [E,G,]6 z6 |] %17

